!!!!SEGMENT: pl-cz--iii-100--pc0_danik-jan-ignac--ad-te-concurrimus-pc0.krn
!!!cenid: 17xx:871a
!!!COM: Danik, Ján Ignác
!!!COM-rismID: pe30000792
!!!CDT: ~1700-~1799
!!!CNT: Czech
!!!OTL: Ad te concurrimus
!!!PDT: 1773
!!!AGN: Sacred
!!!YEC: Copyright 2022 Narodowy Instytut Fryderyka Chopina (https://polishscores.org)
!!!YEM: License CC-BY-4.0 (https://creativecommons.org/licenses/by/4.0)
!!!SMS-siglum: PL-CZ
!!!SMS-shelfmark: III-100
!!!SMS-shelfwork: W
!!!SMS-variant:
!!!SMS-altvar:
!!!NIFC-rismSourceID: 300000095
!!!NIFC-rismChildID: 300000095
!!!NIFC-islandoraID: pl-cz:34089
!!!URL-pdf-islandora: https://repozytorium.nifc.pl/islandora/object/pl-cz%3A34089/datastream/PDF/view
!!!URL-scan: https://polish.musicsources.pl/pl/lokalizacje/galeria/rekopisy/6818/1 @EN{Scan on Polish Music Sources Website} @PL{Skany w portalu Dziedzictwo Muzyki Polskiej w otwartym dostępie}
!!!IIIF:
!!!ONB-nifc:
!!!AIN: 1 organ 2 violn 1 vox
!!!key: A
**kern	**fba	**dynam	**kern	**dynam	**kern	**dynam	**kern	**text
*	*	*	*group1	*	*group1	*	*	*
*part4	*	*	*part3	*	*part2	*	*part1	*
*staff4	*	*	*staff3	*	*staff2	*	*staff1	*
*>[A,B,A]	*	*	*>[A,B,A]	*	*>[A,B,A]	*	*>[A,B,A]	*
*>A	*	*	*>A	*	*>A	*	*>A	*
*I"Organo.	*	*	*I"Violino Secundo.	*	*I"Violino Primo.	*	*I"La Voce.	*
*I'org	*	*	*I'vl 2	*	*I'vl 1	*	*I'V	*
*Iorgan	*	*	*Ivioln	*	*Ivioln	*	*Ivox	*
*ICklav	*	*	*ICstr	*	*ICstr	*	*ICvox	*
*IGcont	*	*	*	*	*	*	*	*
*clefF4	*	*	*clefG2	*	*clefG2	*	*clefC1	*
*k[f#c#g#]	*	*	*k[f#g#c#]	*	*k[f#g#c#]	*	*k[f#c#g#]	*
*A:	*	*	*A:	*	*A:	*	*A:	*
*M3/4	*	*	*M3/4	*	*M3/4	*	*M3/4	*
=1	=1	=1	=1	=1	=1	=1	=1	=1
!	!	!	!LO:TX:t=P:problem=kolejność znaków ff# g# cc#	!	!LO:TX:t=P:problem=kolejność znaków ff# g# cc#	!	!	!
!LO:TX:a:B:t=andantino.	!	!	!LO:TX:a:B:t=andantino.	!	!LO:TX:a:B:t=Andantino.	!	!LO:TX:a:B:t=Andantino.	!
4A\	.	.	4cc#\	.	8a/L	.	0.r	.
.	.	.	.	.	8cc#/J	.	.	.
4AA/	.	.	4cc#\	.	4ee\	.	.	.
4r	.	.	12ff#\L	.	12aa\L	.	.	.
.	.	.	12ee\	.	12gg#\	.	.	.
.	.	.	12dd\J	.	12ff#\J	.	.	.
=2	=2	=2	=2	=2	=2	=2	=2	=2
4E\	.	.	4.cc#t\	.	4.eeT\	.	.	.
4G#\	6 5	.	.	.	.	.	.	.
.	.	.	8b\	.	8dd\	.	.	.
4A\	.	.	4a/	.	4cc#\	.	.	.
=3	=3	=3	=3	=3	=3	=3	=3	=3
4A\	.	.	4c#/	.	16A/LL	.	.	.
.	.	.	.	.	16B/	.	.	.
.	.	.	.	.	16c#/	.	.	.
.	.	.	.	.	16d/JJ	.	.	.
4AA/	.	.	4c#/	.	4e/	.	.	.
!	!	!	!LO:TUP:b	!	!LO:TUP:b	!	!	!
4r	.	.	12f#/L	.	12a/L	.	.	.
.	.	.	12e/	.	12g#/	.	.	.
.	.	.	12d/J	.	12f#/J	.	.	.
=4	=4	=4	=4	=4	=4	=4	=4	=4
4E\	.	.	4.c#t/	.	4.eT/	.	.	.
4G#\	6 5	.	.	.	.	.	.	.
.	.	.	8B/	.	8d/	.	.	.
4A\	.	.	4A/	.	4c#/	.	.	.
=5	=5	=5	=5	=5	=5	=5	=5	=5
4E\	.	.	8.g#/L	.	8.bT\L	.	0.r	.
.	.	.	16a/Jk	.	16cc#\Jk	.	.	.
.	.	.	.	.	8qqee/	.	.	.
4EE/	.	.	4b\	.	4dd\	.	.	.
4r	.	.	16dd\KL	.	16bb\KL	.	.	.
!	!	!	!	!	!LO:TX:a:t=..	!	!	!
.	.	.	8b\	.	8gg#'\	.	.	.
.	.	.	16g#\Jk	.	16dd\Jk	.	.	.
!	!	!	!	!	!LO:LB:g=original	!	!	!
=6	=6	=6	=6	=6	=6	=6	=6	=6
4A\	.	.	8.a/L	.	8.cc#\L	.	.	.
.	.	.	16b/Jk	.	16dd\Jk	.	.	.
4AA/	.	.	4cc#\	.	4ee\	.	.	.
4r	.	.	16ee\KL	.	16ccc#\KL	.	.	.
.	.	.	8cc#\	.	8aa\	.	.	.
.	.	.	16a\Jk	.	16ee\Jk	.	.	.
!	!	!	!LO:LB:g=original	!	!	!	!	!
=7	=7	=7	=7	=7	=7	=7	=7	=7
4A\	.	.	8cc#\L	.	8aa\L	.	.	.
.	.	.	8ee|\	.	8ccc#|\	.	.	.
4G#\	6 5	.	(8ee\	.	(8ccc#\	.	.	.
.	.	.	8dd\)	.	8bb\)	.	.	.
4A\	.	.	(8dd\	.	(8bb\	.	.	.
.	.	.	8cc#\J)	.	8aa\J)	.	.	.
!LO:LB:g=original	!	!	!	!	!	!	!	!
=8	=8	=8	=8	=8	=8	=8	=8	=8
.	.	.	8qqcc#/	.	8qqaa/	.	.	.
8E\L	.	.	4b\	.	4gg#\	.	.	.
16G#|\L	.	.	.	.	.	.	.	.
16A|\JJ	.	.	.	.	.	.	.	.
16B|\LL	.	.	4r	.	4r	.	.	.
16A|\	.	.	.	.	.	.	.	.
16G#|\	.	.	.	.	.	.	.	.
16F#|\JJ	.	.	.	.	.	.	.	.
4E\	.	.	4r	.	4r	.	.	.
=9	=9	=9	=9	=9	=9	=9	=9	=9
4r	.	.	12b\L	.	12gg#\L	.	0.r	.
.	.	.	12cc#\	.	12aa\	.	.	.
.	.	.	12dd\J	.	12bb\J	.	.	.
.	.	.	.	.	8qqee/	.	.	.
*	*	*	*2\right	*	*2\right	*	*	*
8E\L	7_	.	2bT\	.	2dd\	.	.	.
8F#\	.	.	.	.	.	.	.	.
8G#\	.	.	.	.	.	.	.	.
8E\J	.	.	.	.	.	.	.	.
=10	=10	=10	=10	=10	=10	=10	=10	=10
4A\	x	.	4cc#\	.	16cc#\LL	.	.	.
.	.	.	.	.	16a\	.	.	.
.	.	.	.	.	16b\	.	.	.
.	.	.	.	.	16cc#\JJ	.	.	.
4r	.	.	4r	.	16dd\LL	.	.	.
.	.	.	.	.	16ee\	.	.	.
.	.	.	.	.	16ff#\	.	.	.
.	.	.	.	.	16gg#\JJ	.	.	.
4AA/	.	.	4cc#\	.	16aa\LL	.	.	.
.	.	.	.	.	16gg#\	.	.	.
.	.	.	.	.	16aa\	.	.	.
.	.	.	.	.	16ee\JJ	.	.	.
!	!	!	!	!	!LO:LB:g=original	!	!	!
=11	=11	=11	=11	=11	=11	=11	=11	=11
4D\	.	.	8dd\L	.	8ff#\L	.	.	.
.	.	.	24ff#\L	.	24ddd\L	.	.	.
.	.	.	24ee\	.	24ccc#\	.	.	.
.	.	.	24dd\JJ	.	24bb\JJ	.	.	.
!LO:TX:t=P:problem=mixed beam	!	!	!	!	!	!	!	!
8E\L	6 4	.	4cc#\	.	4aa\	.	.	.
8D\	.	.	.	.	.	.	.	.
8E\	5 3	.	4b\	.	4gg#t\	.	.	.
8EE/J	.	.	.	.	.	.	.	.
=12	=12	=12	=12	=12	=12	=12	=12	=12
.	.	.	.	.	8qqgg#/	.	.	.
!LO:TX:t=P:problem=mixed beam	!	!	!	!	!	!	!	!
8AA/L	.	.	8cc#\L	.	4aa\	.	.	.
8A\	.	.	8cc#\	.	.	.	.	.
8A\	.	.	8cc#\	.	8r	.	.	.
8A\	.	.	8cc#\	.	8eee\	.	.	.
8A\	.	.	8cc#\	.	(16ddd\LL	.	.	.
.	.	.	.	.	16ccc#\)	.	.	.
8A\J	.	.	8cc#\J	.	(16bb\	.	.	.
.	.	.	.	.	16aa\JJ)	.	.	.
=13	=13	=13	=13	=13	=13	=13	=13	=13
.	.	.	.	.	8qqaa/	.	.	.
*2\right	*	*	*	*	*	*	*	*
*tremolo	*	*	*tremolo	*	*	*	*	*
8E\L	7	.	8b\L	.	4gg#\	.	0.r	.
8E\	.	.	8b\	.	.	.	.	.
8E\	.	.	8b\	.	8r	.	.	.
8E\	.	.	8b\	.	8ddd\	.	.	.
8E\	.	.	8b\	.	(16ccc#\LL	.	.	.
.	.	.	.	.	16bb\)	.	.	.
8E\J	.	.	8b\J	.	(16aa\	.	.	.
.	.	.	.	.	16gg#\JJ)	.	.	.
!LO:LB:g=original	!	!	!	!	!	!	!	!
=14	=14	=14	=14	=14	=14	=14	=14	=14
.	.	.	.	.	8qqgg#/	.	.	.
8AA/L	.	.	8c#/L	.	4aa\	.	.	.
8AA/	.	.	8c#/	.	.	.	.	.
8AA/	.	.	8c#/	.	8r	.	.	.
8AA/	.	.	8c#/	.	8ee\	.	.	.
8AA/	.	.	8c#/	.	(16dd\LL	.	.	.
.	.	.	.	.	16cc#\)	.	.	.
8AA/J	.	.	8c#/J	.	(16b\	.	.	.
.	.	.	.	.	16a\JJ)	.	.	.
!	!	!	!LO:LB:g=original	!	!	!	!	!
=15	=15	=15	=15	=15	=15	=15	=15	=15
.	.	.	.	.	8qqa/	.	.	.
8E\L	7	.	8B/L	.	4g#/	.	.	.
8E\	.	.	8B/	.	.	.	.	.
!	!	!	!	!	!LO:LB:g=original	!	!	!
8E\	.	.	8B/	.	8r	.	.	.
8E\	.	.	8B/	.	8dd\	.	.	.
8E\	.	.	8B/	.	(16cc#/LL	.	.	.
.	.	.	.	.	16b/)	.	.	.
8E\J	.	.	8B/J	.	(16a/	.	.	.
.	.	.	.	.	16g#/JJ)	.	.	.
*Xtremolo	*	*	*Xtremolo	*	*	*	*	*
=16	=16	=16	=16	=16	=16	=16	=16	=16
!	!	!	!	!	!LO:TUP:b	!	!	!
4AA/	.	.	4c#/	.	12a/L	.	.	.
.	.	.	.	.	12cc#/	.	.	.
.	.	.	.	.	12ee/J	.	.	.
4r	.	.	12ee\L	.	12aa\L	.	.	.
.	.	.	12aa\	.	12ccc#\	.	.	.
.	.	.	12ccc#\J	.	12eee\J	.	.	.
4AA/	.	.	8bb\L	.	8ddd\L	.	.	.
.	.	.	8aa\J	.	8ccc#\J	.	.	.
=17	=17	=17	=17	=17	=17	=17	=17	=17
4E\	.	.	4gg#\	.	12bb\L	.	1.r	.
.	.	.	.	.	12gg#\	.	.	.
.	.	.	.	.	12ee\J	.	.	.
8G#\L	6 5	.	8b/L	.	2ddd\	.	.	.
8F#\	.	.	8a/	.	.	.	.	.
8G#\	.	.	8b/	.	.	.	.	.
8E\J	.	.	8g#/J	.	.	.	.	.
=18	=18	=18	=18	=18	=18	=18	=18	=18
4A\	.	.	4e/	.	(16ccc#\LL	.	.	.
.	.	.	.	.	16aa\)	.	.	.
.	.	.	.	.	16eee'\	.	.	.
.	.	.	.	.	16aa'\JJ	.	.	.
!LO:TX:t=P:problem=mixed beam	!	!	!	!	!	!	!	!
8E\L	4	.	4a/	.	2bbT\	.	.	.
8D\	.	.	.	.	.	.	.	.
8E\	3	.	4g#/	.	.	.	.	.
8EE/J	.	.	.	.	.	.	.	.
=19	=19	=19	=19	=19	=19	=19	=19	=19
4AA/	.	.	8a|\L	.	8aa\L	.	2.r	.
.	.	.	(16cc#\L	.	(16ee\L	.	.	.
.	.	.	16dd\JJ)	.	16ff#\JJ)	.	.	.
4r	.	.	8cc#\L	.	8ee\L	.	.	.
.	.	.	8b\J	.	8dd\J	.	.	.
.	.	.	8qqb/	.	8qqdd/	.	.	.
4AA/	.	.	4a/	.	4cc#;;\	.	.	.
=20||	=20||	=20||	=20||	=20||	=20||	=20||	=20||	=20||
!	!	!LO:DY:a:t=Piano.	!	!LO:DY:a:t=Piano.	!	!LO:DY:a:t=Piano.	!	!
4A\	.	p	4cc#\	p	(8a\L	p	(8a\L	Ad
.	.	.	.	.	8cc#\J)	.	8cc#\J)	.
4AA/	.	.	4cc#\	.	4ee\	.	4ee\	Te
!	!	!	!	!	!LO:LB:g=original	!	!	!
4r	.	.	12ff#\L	.	12aa\L	.	12aa\L	con-
.	.	.	12ee\	.	12gg#\	.	12gg#\	.
.	.	.	12dd\J	.	12ff#\J	.	12ff#\J	.
=21	=21	=21	=21	=21	=21	=21	=21	=21
4E\	.	.	4.cc#t\	.	4.eeT\	.	4.eeT\	-cur-
4G#\	6 5	.	.	.	.	.	.	.
.	.	.	8b\	.	8dd\	.	8dd\	-ri-
4A\	.	.	4a/	.	4cc#\	.	4cc#\	-mus;
!LO:LB:g=original	!	!	!LO:LB:g=original	!	!	!	!	!
=22	=22	=22	=22	=22	=22	=22	=22	=22
4A\	.	.	4cc#\	.	(16a/LL	.	(16a\LL	Lau-
.	.	.	.	.	16b/)	.	16b\	.
.	.	.	.	.	(16cc#/	.	16cc#\	.
.	.	.	.	.	16dd/JJ)	.	16dd\JJ)	.
4AA/	.	.	4cc#\	.	4ee\	.	4ee\	.
4r	.	.	12ff#\L	.	12aa\L	.	12aa\L	-des
.	.	.	12ee\	.	12gg#\	.	12gg#\	.
.	.	.	12dd\J	.	12ff#\J	.	12ff#\J	.
=23	=23	=23	=23	=23	=23	=23	=23	=23
4E\	.	.	4.cc#t\	.	4.eeT\	.	4.eeT\	di-
4G#\	6 5	.	.	.	.	.	.	.
.	.	.	8b\	.	8dd\	.	8dd\	-ci-
4A\	.	.	4a/	.	4cc#\	.	4cc#\	-mus
!	!	!	!	!	!	!	!LO:LB:g=original	!
=24	=24	=24	=24	=24	=24	=24	=24	=24
4E\	7	.	8.g#t/L	.	8.bT\L	.	8.bT\L	Ti-
.	.	.	16a/Jk	.	16cc#\K	.	16cc#\Jk	.
.	.	.	.	.	.	.	8qqee/	.
4EE/	.	.	8b\L	.	8dd\	.	4dd\	-bi
.	.	.	8dd|\	.	8bb|\	.	.	.
4r	.	.	(8dd\	.	(8bb\	.	4r	.
.	.	.	8b\J)	.	8gg#\J)	.	.	.
=25	=25	=25	=25	=25	=25	=25	=25	=25
4A\	.	.	8.a\L	.	8.cc#t\L	.	8.cc#t\L	Ma-
.	.	.	16b\Jk	.	16dd\K	.	16dd\Jk	.
.	.	.	.	.	.	.	8qqff#/	.
4AA/	.	.	8cc#\L	.	8ee\	.	4ee\	-ter
.	.	.	8ee|\	.	8ccc#|\	.	.	.
4r	.	.	(8ee\	.	(8ccc#\	.	4r	.
.	.	.	8cc#\J)	.	8aa\J)	.	.	.
=26	=26	=26	=26	=26	=26	=26	=26	=26
4A\	.	.	4cc#\	.	(8aa\L	.	(8aa\L	gra-
.	.	.	.	.	8ee\)	.	8ee\	.
4G#\	6 5	.	(8cc#\L	.	(8ee\	.	8ee\	.
.	.	.	8b\)	.	8dd\)	.	8dd\J)	.
4A\	.	.	(8b\	.	(8dd\	.	(8dd\L	.
.	.	.	8a\J)	.	8cc#\J)	.	8cc#\J)	-ti-
!	!	!	!	!	!LO:LB:g=original	!	!	!
=27	=27	=27	=27	=27	=27	=27	=27	=27
.	.	.	.	.	.	.	8qqcc#/	.
!	!	!	!	!	!	!LO:DY:a	!	!
4E\	.	.	8g#/L	.	8b\L	f	4b\	-ae
.	.	.	8b|/	.	8ee|\	.	.	.
4r	.	.	(8b/	.	(8gg#\	.	4r	.
.	.	.	8a/)	.	8ff#\)	.	.	.
4r	.	.	(8a/	.	(8ff#\	.	4r	.
.	.	.	8g#/J)	.	8ee\J)	.	.	.
=28	=28	=28	=28	=28	=28	=28	=28	=28
!	!	!	!	!	!	!LO:DY:a:t=p&colon;	!	!
4E\	.	.	4g#/	.	4ee\	p	4ee\	Cum
4r	.	.	4r	.	8ee\L	.	8ee\	pro-
.	.	.	.	.	8b\J	.	8b\	-fun-
4r	.	.	4r	.	8g#/L	.	8g#/	-diſ-
.	.	.	.	.	8e/J	.	8e/	-si-
!	!	!	!LO:LB:g=original	!	!	!	!	!
=29	=29	=29	=29	=29	=29	=29	=29	=29
*	*	*	*tremolo	*	*tremolo	*	*	*
8BB/L	#	.	8f#/L	.	8d#X/L	.	2d#X/	-mo
8BB/	.	.	8f#/	.	8d#/	.	.	.
8BB/	.	.	8f#/	.	8d#/	.	.	.
8BB/	.	.	8f#/J	.	8d#/J	.	.	.
*	*	*	*Xtremolo	*	*Xtremolo	*	*	*
!	!	!	!LO:TUP:b	!	!	!	!LO:LB:g=original	!
8BB/	.	.	12a/L	.	12cc#\L	.	12cc#\L	Res-
.	.	.	12g#/	.	12b\	.	12b\	.
8BB/J	.	.	.	.	.	.	.	.
.	.	.	12f#/J	.	12a\J	.	12a\J	.
=30	=30	=30	=30	=30	=30	=30	=30	=30
4BB/	7	.	4f#T/	.	4a/	.	4aT\	-pec-
4E\	.	.	4e/	.	4g#/	.	4g#\	-ta
!	!	!	!	!LO:DY:a:t=f&colon;	!	!	!	!
4r	.	.	(16e/LL	f	(16g#/LL	.	4r	.
.	.	.	16f#/)	.	16a/)	.	.	.
.	.	.	(16f#/	.	(16a/	.	.	.
.	.	.	16g#/JJ)	.	16b/JJ)	.	.	.
!LO:LB:g=original	!	!	!	!	!	!	!	!
=31	=31	=31	=31	=31	=31	=31	=31	=31
!	!	!	!	!LO:DY:a:t=p&colon;	!	!	!	!
4E\	.	.	4g#/	p	(16ee\LL	.	(16ee\LL	om-
.	.	.	.	.	16dd#X\)	.	16dd#X\	.
.	.	.	.	.	(16cc#\	.	16cc#\	.
.	.	.	.	.	16b\JJ)	.	16b\JJ)	.
4A\	5_ 3_	.	4f#/	.	4a/	.	4a\	-nes
4A#X\	.	.	4e/	.	4g#/	.	4g#\	a-
=32	=32	=32	=32	=32	=32	=32	=32	=32
4B\	4	.	4e/	.	4g#t/	.	8.g#t/	-plau-
.	.	.	.	.	.	.	16g#/	-di-
4BB/	#	.	4d#X/	.	4f#/	.	4f#,</	-mus,
4r	.	.	4g#/	.	4b\	.	4b\	in
=33	=33	=33	=33	=33	=33	=33	=33	=33
*	*	*	*	*	*	*	*Xbrackettup	*
!	!	!	!	!	!	!	!LO:TUP:r=4	!
4An\	.	.	4e/	.	4cc#\	.	12cc#\L	tam
.	.	.	.	.	.	.	12b\	.
.	.	.	.	.	.	.	12a\	.
!	!	!	!	!	!	!	!LO:TUP:r=4	!
4A\	.	.	4e/	.	4cc#\	.	12aa\	.
.	.	.	.	.	.	.	12gg#\	.
.	.	.	.	.	.	.	12ff#\	.
4A\	.	.	4e/	.	4cc#\	.	12ee\	.
.	.	.	.	.	.	.	12dd#X\	.
.	.	.	.	.	.	.	12cc#\J	.
!	!	!	!	!	!LO:LB:g=original	!	!	!
=34	=34	=34	=34	=34	=34	=34	=34	=34
!	!	!	!	!	!	!	!LO:TUP:r=4	!
4G#X\	6 3	.	4e/	.	4b\	.	12b\L	ma-
.	.	.	.	.	.	.	12a\	.
.	.	.	.	.	.	.	12g#\	.
!	!	!	!	!	!	!	!LO:TUP:r=4	!
4G#\	.	.	4e/	.	4b\	.	12gg#\	.
.	.	.	.	.	.	.	12ff#\	.
.	.	.	.	.	.	.	12ee\	.
4G#\	.	.	4e/	.	4b\	.	12dd#X\	.
.	.	.	.	.	.	.	12cc#\	.
.	.	.	.	.	.	.	12b\J	.
=35	=35	=35	=35	=35	=35	=35	=35	=35
!	!	!	!	!	!	!	!LO:TUP:r=4	!
4F#\	6\ 3	.	4d#X/	.	4a/	.	12a\L	-gna
.	.	.	.	.	.	.	12g#\	.
.	.	.	.	.	.	.	12f#\	.
!	!	!	!	!	!	!	!LO:TUP:r=4	!
4F#\	.	.	4d#/	.	4a/	.	12ff#\	.
.	.	.	.	.	.	.	12ee\	.
.	.	.	.	.	.	.	12dd#X\	.
4F#\	.	.	4d#/	.	4a/	.	12cc#\	.
.	.	.	.	.	.	.	12b\	.
.	.	.	.	.	.	.	12a\J	.
=36	=36	=36	=36	=36	=36	=36	=36	=36
!	!	!	!	!	!	!	!LO:TX:t=P:problem=mixed beam	!
!	!	!	!	!	!	!	!LO:TUP:b:r=4	!
4E\	.	.	4B/	.	4g#/	.	12g#/L	Fe-
.	.	.	.	.	.	.	12f#/	.
.	.	.	.	.	.	.	12e/	.
!	!	!	!	!	!	!	!LO:TUP:r=4	!
4E\	.	.	4B/	.	4g#/	.	12ee\	.
.	.	.	.	.	.	.	12dd#X\	.
.	.	.	.	.	.	.	12cc#\	.
4E\	.	.	4B/	.	4g#/	.	12b\	.
.	.	.	.	.	.	.	12a\	.
.	.	.	.	.	.	.	12g#\J	.
!	!	!	!LO:LB:g=original	!	!	!	!	!
=37	=37	=37	=37	=37	=37	=37	=37	=37
4BB/	#	.	8.d#X/L	.	8.f#T/L	.	(8.f#T/L	-sti-
.	.	.	16e/Jk	.	16g#/Jk	.	16g#/Jk)	.
*	*	*	*	*	*	*	*2\right	*
8D#X/L	6 5_	.	2f#/	.	2aT/	.	2aT\	-vi-
8C#/	.	.	.	.	.	.	.	.
8D#/	.	.	.	.	.	.	.	.
8BB/J	.	.	.	.	.	.	.	.
=38	=38	=38	=38	=38	=38	=38	=38	=38
4E\	x	.	8.e/L	.	8.g#t/L	.	8.g#t\L	-ta-
.	.	.	16f#/Jk	.	16a/Jk	.	16a\Jk	.
!LO:LB:g=original	!	!	!	!	!	!	!	!
8G#\L	6 3	.	2g#/	.	2bT\	.	2bT\	.
8F#\	.	.	.	.	.	.	.	.
8G#\	.	.	.	.	.	.	.	.
8E\J	.	.	.	.	.	.	.	.
=39	=39	=39	=39	=39	=39	=39	=39	=39
4E\	.	.	(8b\L	.	(8ee\L	.	(8ee\L	.
.	.	.	8g#\)	.	8b\)	.	8b\)	.
4r	.	.	(8ee\	.	(8gg#\	.	(8gg#\	.
.	.	.	8b\J)	.	8ee\J)	.	8ee\J)	.
4E\	.	.	4gg#\	.	4bb\	.	4bb\	.
!	!	!	!	!	!	!	!LO:LB:g=original	!
=40	=40	=40	=40	=40	=40	=40	=40	=40
4BB/	7 #	.	(8a/L	.	(8dd#X\L	.	(8dd#X\L	.
.	.	.	8f#/J)	.	8b\J)	.	8b\)	.
4r	.	.	(8dd#X\L	.	(8ff#\L	.	(8ff#\	.
.	.	.	8a\J)	.	8dd#\J)	.	8dd#\J)	.
4BB/	.	.	4ff#\	.	4aa\	.	4aa\	.
=41	=41	=41	=41	=41	=41	=41	=41	=41
4E\	.	.	4ee\	.	4gg#\	.	12gg#\L	.
.	.	.	.	.	.	.	12bb\	.
.	.	.	.	.	.	.	12ee\J	.
4B\	4	.	4ee\	.	4.ff#T\	.	2ff#T\	.
4BB/	#	.	4dd#X\	.	.	.	.	.
.	.	.	.	.	8ff#\	.	.	.
!	!	!	!	!	!LO:LB:g=original	!	!	!
=42	=42	=42	=42	=42	=42	=42	=42	=42
!	!	!LO:DY:a:t=Forte.	!	!LO:DY:a:t=Forte.:rj	!	!LO:DY:a:t=Forte.	!	!
4E\	.	f	4ee\	f	8ee\L	f	4ee\	-te
.	.	.	.	.	8gg#\J	.	.	.
4EE/	.	.	4g#/	.	4bb\	.	4r	.
4r	.	.	12cc#\L	.	12eee\L	.	4r	.
.	.	.	12b\	.	12ddd#X\	.	.	.
.	.	.	12a\J	.	12ccc#\J	.	.	.
=43	=43	=43	=43	=43	=43	=43	=43	=43
4BB/	#	.	4.g#t/	.	4.bbT\	.	0.r	.
4D#X/	6 5	.	.	.	.	.	.	.
.	.	.	8f#/	.	8aa\	.	.	.
4E/	.	.	4e/	.	4gg#\	.	.	.
!	!	!	!LO:LB:g=original	!	!	!	!	!
=44	=44	=44	=44	=44	=44	=44	=44	=44
4E\	.	.	4g#/	.	16e/LL	.	.	.
.	.	.	.	.	16f#/	.	.	.
.	.	.	.	.	16g#/	.	.	.
.	.	.	.	.	16a/JJ	.	.	.
4EE/	.	.	4g#/	.	4b\	.	.	.
4r	.	.	12cc#\L	.	12ee\L	.	.	.
.	.	.	12b\	.	12dd#X\	.	.	.
.	.	.	12a\J	.	12cc#\J	.	.	.
=45	=45	=45	=45	=45	=45	=45	=45	=45
4BB/	#	.	4.g#t/	.	4.bT\	.	.	.
4D#X\	6 5	.	.	.	.	.	.	.
.	.	.	8f#/	.	8a/	.	.	.
4E\	.	.	4e/	.	4g#/	.	.	.
!LO:LB:g=original	!	!	!	!	!	!	!	!
=46	=46	=46	=46	=46	=46	=46	=46	=46
4A\	.	.	(8cc#/L	.	(8aa\L	.	.	.
.	.	.	8a/)	.	8ff#\)	.	.	.
4B\	4	.	(8b/	.	(8gg#\	.	.	.
.	.	.	8g#/)	.	8ee\)	.	.	.
4BB/	#	.	(8a/	.	(8ff#\	.	.	.
.	.	.	8f#/J)	.	8dd#X\J)	.	.	.
=47	=47	=47	=47	=47	=47	=47	=47	=47
!	!	!	!LO:TUP:b	!	!	!	!	!
4E\	.	.	12g#/L	.	12ee\L	.	0.r	.
.	.	.	12a/	.	12ff#\	.	.	.
.	.	.	12b/J	.	12gg#\J	.	.	.
8G#\L	6 5	.	2bT\	.	2bT\	.	.	.
8F#\	.	.	.	.	.	.	.	.
8G#\	.	.	.	.	.	.	.	.
8E\J	.	.	.	.	.	.	.	.
!	!	!	!	!	!LO:LB:g=original	!	!	!
=48	=48	=48	=48	=48	=48	=48	=48	=48
4A\	.	.	(8a/L	.	(8cc#/L	.	.	.
.	.	.	8f#/)	.	8a/)	.	.	.
4B\	4	.	(8g#/	.	(8b/	.	.	.
.	.	.	8e/)	.	8g#/)	.	.	.
4BB/	#	.	(8f#/	.	(8a/	.	.	.
.	.	.	8d#X/J)	.	8f#/J)	.	.	.
=49	=49	=49	=49	=49	=49	=49	=49	=49
*tremolo	*	*	*	*	*	*	*	*
8E\L	.	.	8e/L	.	4e/	.	.	.
8E\	.	.	8g#/	.	.	.	.	.
8E\	.	.	8g#/	.	8r	.	.	.
8E\	.	.	8g#/	.	8bb\	.	.	.
8E\	.	.	8g#/	.	(16aa\LL	.	.	.
.	.	.	.	.	16gg#\)	.	.	.
8E\J	.	.	8g#/J	.	(16ff#\	.	.	.
.	.	.	.	.	16ee\JJ)	.	.	.
=50	=50	=50	=50	=50	=50	=50	=50	=50
.	.	.	.	.	8qqee/	.	.	.
*	*	*	*tremolo	*	*	*	*	*
8BB/L	7 #	.	8f#/L	.	4dd#X\	.	.	.
8BB/	.	.	8f#/	.	.	.	.	.
8BB/	.	.	8f#/	.	8r	.	.	.
8BB/	.	.	8f#/	.	8aa\	.	.	.
8BB/	.	.	8f#/	.	(16gg#\LL	.	.	.
.	.	.	.	.	16ff#\)	.	.	.
8BB/J	.	.	8f#/J	.	(16ee\	.	.	.
.	.	.	.	.	16dd#\JJ)	.	.	.
!	!	!	!LO:LB:g=original	!	!	!	!	!
=51	=51	=51	=51	=51	=51	=51	=51	=51
8E\L	.	.	8g#/L	.	4ee\	.	0.r	.
8E\	.	.	8g#/	.	.	.	.	.
8E\	.	.	8g#/	.	8r	.	.	.
8E\	.	.	8g#/	.	8b/	.	.	.
8E\	.	.	8g#/	.	(16a/LL	.	.	.
.	.	.	.	.	16g#/)	.	.	.
8E\J	.	.	8g#/J	.	(16f#/	.	.	.
.	.	.	.	.	16e/JJ)	.	.	.
=52	=52	=52	=52	=52	=52	=52	=52	=52
.	.	.	.	.	8qqe/	.	.	.
8BB/L	7 #	.	8f#/L	.	4d#X/	.	.	.
8BB/	.	.	8f#/	.	.	.	.	.
8BB/	.	.	8f#/	.	8r	.	.	.
8BB/	.	.	8f#/	.	8a/	.	.	.
8BB/	.	.	8f#/	.	(16g#/LL	.	.	.
.	.	.	.	.	16f#/)	.	.	.
8BB/J	.	.	8f#/J	.	(16e/	.	.	.
.	.	.	.	.	16d#/JJ)	.	.	.
*Xtremolo	*	*	*Xtremolo	*	*	*	*	*
!	!	!	!	!	!LO:LB:g=original	!	!	!
=53	=53	=53	=53	=53	=53	=53	=53	=53
!	!	!	!	!	!LO:TUP:b	!	!	!
4E\	.	.	4g#/	.	12e/L	.	.	.
.	.	.	.	.	12g#/	.	.	.
.	.	.	.	.	12b/J	.	.	.
4r	.	.	12b\L	.	12ee\L	.	.	.
.	.	.	12ee\	.	12gg#\	.	.	.
.	.	.	12gg#\J	.	12bb\J	.	.	.
4E\	.	.	8ff#\L	.	8aa\L	.	.	.
.	.	.	8ee\J	.	8gg#\J	.	.	.
=54	=54	=54	=54	=54	=54	=54	=54	=54
4BB/	#	.	4dd#X\	.	12ff#\L	.	.	.
.	.	.	.	.	12dd#X\	.	.	.
.	.	.	.	.	12b\J	.	.	.
8D#X/L	6 5	.	2ff#T\	.	2aaT\	.	.	.
8C#/	.	.	.	.	.	.	.	.
8D#/	.	.	.	.	.	.	.	.
8BB/J	.	.	.	.	.	.	.	.
!LO:LB:g=original	!	!	!	!	!	!	!	!
=55	=55	=55	=55	=55	=55	=55	=55	=55
4E\	.	.	4ee\	.	16gg#\LL	.	1.r	.
.	.	.	.	.	16ee\	.	.	.
.	.	.	.	.	16bb\	.	.	.
.	.	.	.	.	16ee\JJ	.	.	.
4B\	4	.	4ee\	.	2ff#T\	.	.	.
4BB/	#	.	4dd#X\	.	.	.	.	.
=56	=56	=56	=56	=56	=56	=56	=56	=56
!	!	!	!LO:TX:t=P:problem=mixed beam	!	!	!	!	!
4E\	.	.	8ee\L	.	8ee\L	.	.	.
.	.	.	(16g#/L	.	(16b\L	.	.	.
.	.	.	16a/JJ)	.	16cc#\JJ)	.	.	.
4r	.	.	8g#/L	.	8b/L	.	.	.
.	.	.	8f#/J	.	8a/J	.	.	.
.	.	.	8qqf#/	.	.	.	.	.
4EE/	.	.	4e/	.	4g#/	.	.	.
=57	=57	=57	=57	=57	=57	=57	=57	=57
!	!	!LO:DY:a:t=piano.	!	!LO:DY:a:t=Piano.	!	!LO:DY:a:t=Piano	!	!
4E\	.	p	4g#/	p	8e/L	p	(8e/L	Ad
.	.	.	.	.	8g#/J	.	8g#/J)	.
4EE/	.	.	4g#/	.	4b/	.	4b\	Te
4r	.	.	12cc#\L	.	12ee\L	.	12ee\L	con-
.	.	.	12b\	.	12dd#X\	.	12dd#X\	.
.	.	.	12a\J	.	12cc#\J	.	12cc#\J	.
=58	=58	=58	=58	=58	=58	=58	=58	=58
4BB/	#	.	4.g#t/	.	4.bT/	.	4.bT\	-cur-
4D#X\	6 5	.	.	.	.	.	.	.
.	.	.	8f#/	.	8a/	.	8a\	-ri-
4E\	.	.	4e/	.	4g#/	.	4g#/	-mus
!	!	!	!LO:LB:g=original	!	!LO:LB:g=original	!	!LO:LB:g=original	!
=59	=59	=59	=59	=59	=59	=59	=59	=59
4E\	.	.	4g#/	.	(16e/LL	.	(16e/LL	Lau-
.	.	.	.	.	16f#/)	.	16f#/	.
.	.	.	.	.	(16g#/	.	16g#/	.
.	.	.	.	.	16a/JJ)	.	16a/JJ)	.
4EE/	.	.	4g#/	.	4b\	.	4b\	.
4r	.	.	12cc#\L	.	12ee\L	.	12ee\L	-des
.	.	.	12b\	.	12dd#X\	.	12dd#X\	.
.	.	.	12a\J	.	12cc#\J	.	12cc#\J	.
=60	=60	=60	=60	=60	=60	=60	=60	=60
4BB/	#	.	4.g#t/	.	4.bT\	.	4.bT\	di-
4D#X\	6 5	.	.	.	.	.	.	.
.	.	.	8f#/	.	8a/	.	8a\	-ci-
4E\	.	.	4e/	.	4g#/	.	4g#/	-mus
=61	=61	=61	=61	=61	=61	=61	=61	=61
4B\	#	.	8.d#X/L	.	8.f#T/L	.	(8.f#T/L	Ti-
.	.	.	16e/Jk	.	16g#/Jk	.	16g#/Jk)	.
.	.	.	.	.	.	.	8qqb/	.
4BB/	.	.	8f#/L	.	8a\L	.	4a/	-bi
.	.	.	8a|/	.	8ff#|\	.	.	.
4r	.	.	(8a/	.	(8ff#\	.	4r	.
.	.	.	8f#/J)	.	8dd#X\J)	.	.	.
=62	=62	=62	=62	=62	=62	=62	=62	=62
4E\	.	.	8.e/L	.	8.g#t/L	.	(8.g#t/L	Ma-
.	.	.	16f#/Jk	.	16a/Jk	.	16a/Jk)	.
.	.	.	.	.	.	.	8qqcc#/	.
4EE/	.	.	8g#/L	.	8b\L	.	4b\	-ter
.	.	.	8b|/	.	8gg#|\	.	.	.
4r	.	.	(8b/	.	(8gg#\	.	4r	.
.	.	.	8g#/J)	.	8ee\J)	.	.	.
!LO:LB:g=original	!	!	!	!	!	!	!	!
=63	=63	=63	=63	=63	=63	=63	=63	=63
4E\	.	.	(8b/L	.	(8ee\L	.	(8ee\L	gra-
.	.	.	8g#/J)	.	8b\)	.	8b\)	.
4r	.	.	(8ee\L	.	(8gg#\	.	(8gg#\	.
.	.	.	8b\J)	.	8ee\)	.	8ee\J)	.
4E\	.	.	(8gg#\L	.	(8bb\	.	(8bb\L	-ti-
.	.	.	8ee\J)	.	8gg#\J)	.	8gg#\J)	.
!	!	!	!	!	!	!	!LO:LB:g=original	!
=64	=64	=64	=64	=64	=64	=64	=64	=64
.	.	.	.	.	.	.	8qqgg#/	.
4BB/	#	.	4dd#X\	.	4ff#\	.	4ff#\	-a,
!	!	!	!	!	!	!LO:DY:a:t=f&colon;	!	!
4r	.	.	(8b\L	.	(8dd#X\L	f	4r	.
.	.	.	8cc#\J)	.	8ee\)	.	.	.
4r	.	.	(8cc#\L	.	(8ee\	.	4r	.
.	.	.	8dd#\J)	.	8ff#\J)	.	.	.
!	!	!	!	!	!LO:LB:g=original	!	!	!
=65	=65	=65	=65	=65	=65	=65	=65	=65
!	!	!	!	!	!	!LO:DY:a:t=p&colon;	!	!
4BB/	#	.	4dd#X\	.	4ff#\	p	4ff#\	cum
4r	.	.	4r	.	8ff#\L	.	8ff#\	pro-
.	.	.	.	.	8dd#X\	.	8dd#X\	-fun-
4r	.	.	4r	.	8b\	.	8b\	-diſ-
.	.	.	.	.	8a\J	.	8a\	-si-
!	!	!	!LO:LB:g=original	!	!	!	!	!
=66	=66	=66	=66	=66	=66	=66	=66	=66
.	.	.	.	.	.	.	8qqa/	.
*	*	*	*tremolo	*	*tremolo	*	*	*
8E\L	.	.	8B/L	.	8g#/L	.	2g#/	-mo
8E\	.	.	8B/	.	8g#/	.	.	.
8E\	.	.	8B/	.	8g#/	.	.	.
8E\J	.	.	8B/J	.	8g#/J	.	.	.
*	*	*	*Xtremolo	*	*Xtremolo	*	*	*
!	!	!	!LO:TUP:b	!	!	!	!	!
4E\	6_ 4_	.	12cc#/L	.	12ee\L	.	12ee\L	Res-
.	.	.	12b/	.	12dd#X\	.	12dd#X\	.
.	.	.	12a/J	.	12cc#\J	.	12cc#\J	.
=67	=67	=67	=67	=67	=67	=67	=67	=67
4E\	.	.	4a/	.	4cc#t\	.	4cc#t\	-pec-
4EE/	5 3	.	8g#/L	.	8b\L	.	4b\	-ta
.	.	.	8g#|/	.	8ee|\	.	.	.
4r	.	.	(8f#/	.	(8dd#X\	.	4r	.
.	.	.	8g#/J)	.	8ee\J)	.	.	.
=68	=68	=68	=68	=68	=68	=68	=68	=68
4BB/	7 #	.	8.f#/L	.	8.dd#Xt\L	.	(8.dd#Xt\L	Lau-
.	.	.	16a/Jk	.	16ff#\Jk	.	16ff#\Jk)	.
!	!	!	!LO:TX:t=P:problem=mixed beam	!	!	!	!	!
4E\	.	.	8g#/L	.	8ee\L	.	4ee\	-des
.	.	.	8ee|\	.	8gg#|\	.	.	.
4r	.	.	(8dd#X\	.	(8ff#\	.	4r	.
.	.	.	8ee\J)	.	8gg#\J)	.	.	.
!	!	!	!	!	!	!	!LO:LB:g=original	!
=69	=69	=69	=69	=69	=69	=69	=69	=69
4E\	.	.	4g#/	.	4ee\	.	(16ee\LL	da-
.	.	.	.	.	.	.	16b\	.
.	.	.	.	.	.	.	16cc#\	.
.	.	.	.	.	.	.	16dd#X\JJ)	.
4r	.	.	4r	.	4r	.	(16ee\LL	.
.	.	.	.	.	.	.	16ff#\	.
.	.	.	.	.	.	.	16gg#\	.
.	.	.	.	.	.	.	16aa\JJ)	.
!	!	!	!	!	!LO:TX:b:i:t=volti citiſ&colon;	!	!	!
4r	.	.	4r	.	4r	.	(16bb\LL	.
.	.	.	.	.	.	.	16gg#\	.
.	.	.	.	.	.	.	16ff#\	.
.	.	.	.	.	.	.	16ee\JJ)	.
!	!	!	!	!	!LO:PB:g=original	!	!	!
=70	=70	=70	=70	=70	=70	=70	=70	=70
4E\	.	.	4ee|\	.	4b\	.	4cc#\	.
.	.	.	.	.	.	.	16qqff#/LL	.
.	.	.	.	.	.	.	16qqgg#/JJ	.
!LO:TX:t=P:problem=mixed beam	!	!	!	!	!	!	!	!
8B\L	4	.	(4ee\	.	4.ff#T\	.	2ff#T\	.
8A\	.	.	.	.	.	.	.	.
8B\	#	.	4dd#X\)	.	.	.	.	.
8BB/J	.	.	.	.	8ff#\	.	.	.
=71	=71	=71	=71	=71	=71	=71	=71	=71
.	.	.	.	.	.	.	8qqff#/	.
4E\	.	.	4ee\	.	4ee\	.	4ee\	-mus
!	!	!	!	!LO:DY:a:t=f&colon;	!	!LO:DY:a:t=f&colon;	!	!
4r	.	.	8e/L	f	(8cc#\L	f	4r	.
.	.	.	8f#/	.	8dd\)	.	.	.
4r	.	.	8e/	.	(8cc#\	.	4r	.
.	.	.	8d/J	.	8b\J)	.	.	.
!LO:LB:g=original	!	!	!	!	!	!	!	!
=72	=72	=72	=72	=72	=72	=72	=72	=72
!	!	!	!	!LO:DY:a:t=p&colon;:rj	!	!LO:DY:a:t=pia.	!	!
4A\	.	.	4c#/	p	8a/L	p	(8a\L	Ad
.	.	.	.	.	8cc#/J	.	8cc#\J)	.
4AA/	.	.	4c#/	.	4ee\	.	4ee\	Te
4r	.	.	12ff#\L	.	12aa\L	.	12aa\L	con-
.	.	.	12ee\	.	12gg#\	.	12gg#\	.
.	.	.	12dd\J	.	12ff#\J	.	12ff#\J	.
!	!	!	!LO:LB:g=original	!	!	!	!	!
=73	=73	=73	=73	=73	=73	=73	=73	=73
4E\	.	.	4.cc#t\	.	4.ee\	.	4.eeT\	-cur-
4G#\	6 5	.	.	.	.	.	.	.
.	.	.	8b\	.	8dd\	.	8dd\	-ri-
4A\	.	.	4a/	.	4cc#\	.	4cc#\	-mus
!	!	!	!	!	!	!	!LO:LB:g=original	!
=74	=74	=74	=74	=74	=74	=74	=74	=74
4A\	7	.	4ee\	.	4ggn\	.	4ggn\	Lau-
4e\	.	.	(8a/L	.	(8ff#\L	.	(8ff#\L	.
.	.	.	8gn/)	.	8ee\)	.	8ee\J)	.
4A\	7	.	(8f#/	.	(8dd\	.	(8dd\L	-des
.	.	.	8e/J)	.	8cc#\J)	.	8cc#\J)	.
=75	=75	=75	=75	=75	=75	=75	=75	=75
4d\	.	.	(8f#/L	.	(8dd\L	.	8.ddT\	di-
.	.	.	8e/)	.	8cc#\)	.	.	.
.	.	.	.	.	.	.	16cc#\	-ci-
4D/	.	.	8f#|/	.	8dd|\	.	4dd\	-mus
.	.	.	8a|/	.	8ff#|\	.	.	.
4r	.	.	(8a/	.	(8ff#\	.	4r	.
.	.	.	8f#/J)	.	8dd\J)	.	.	.
=76	=76	=76	=76	=76	=76	=76	=76	=76
4B\	#	.	4d#X/	.	8b\L	.	(8b\L	Ad
.	.	.	.	.	8dd#X\J	.	8dd#X\J)	.
4BB/	.	.	4d#/	.	4ff#\	.	4ff#\	Te
4r	.	.	12gg#\L	.	12bb\L	.	12bb\L	con-
.	.	.	12ff#\	.	12aa#X\	.	12aa#X\	.
.	.	.	12ee\J	.	12gg#\J	.	12gg#\J	.
!	!	!	!	!	!LO:LB:g=original	!	!	!
=77	=77	=77	=77	=77	=77	=77	=77	=77
4F#\	#	.	4.dd#X\	.	4.ff#T\	.	4.ff#T\	-cur-
4A#X\	6 5	.	.	.	.	.	.	.
.	.	.	8cc#\	.	8ee\	.	8ee\	-ri-
4B\	#	.	4b\	.	4dd#X\	.	4dd#X\	-mus
=78	=78	=78	=78	=78	=78	=78	=78	=78
4B\	7_	.	4ff#\	.	4aa\	.	4aa\	Lau-
!	!	!	!	!	!	!	!LO:LB:g=original	!
4d#X\	.	.	(8b/L	.	(8gg#\L	.	(8gg#\L	.
.	.	.	8a/)	.	8ff#\J)	.	8ff#\J)	.
4B\	.	.	(8g#/	.	(8ee\L	.	(8ee\L	-des
.	.	.	8f#/J)	.	8dd#X\J)	.	8dd#X\J)	.
!	!	!	!LO:LB:g=original	!	!	!	!	!
=79	=79	=79	=79	=79	=79	=79	=79	=79
4e\	x	.	(8g#/L	.	(8ee\L	.	8.ee\	di-
.	.	.	8f#/)	.	8dd#X\)	.	.	.
.	.	.	.	.	.	.	16dd#X\	-ci-
4E/	.	.	8g#|/	.	8ee|\	.	4ee\	-mus
.	.	.	8b|/	.	8gg#|\	.	.	.
4r	.	.	(8b/	.	(8gg#\	.	4r	.
.	.	.	8g#/J)	.	8ee\J)	.	.	.
=80	=80	=80	=80	=80	=80	=80	=80	=80
4D\	5_ 3_	.	8.ff#\L	.	8.aa\L	.	8.aa\	ti-
.	.	.	16ee\Jk	.	16gg#\K	.	16gg#\	-bi
!	!	!	!LO:SIC:v:s=8.dd#\L	!	!	!	!	!
4r	.	.	8.dd\L	.	8.ff#\	.	8ff#\	Ma-
.	.	.	.	.	.	.	8ee\	-ter
.	.	.	16cc#\Jk	.	16ee\K	.	.	.
!	!	!	!	!	!LO:SIC:v:s=8.dd#\	!	!	!
4D#X\	.	.	8.b/L	.	8.dd\	.	8.ddn\	gra-
.	.	.	16a/Jk	.	16cc#\Jk	.	16cc#\	-ti-
!LO:LB:g=original	!	!	!	!	!	!	!	!
=81	=81	=81	=81	=81	=81	=81	=81	=81
.	x	.	.	.	.	.	8qqcc#/	.
4E\	.	.	8g#X/L	.	8b\L	.	4b\	-ae
.	.	.	8b|/	.	8dd|\	.	.	.
4r	.	.	(8b/	.	(8dd\	.	4r	.
.	.	.	8a/)	.	8cc#\)	.	.	.
4r	.	.	(8a/	.	(8cc#\	.	4r	.
.	.	.	8g#/J)	.	8b\J)	.	.	.
!	!	!	!	!	!	!	!LO:PB:g=original	!
=82	=82	=82	=82	=82	=82	=82	=82	=82
4E\	.	.	4g#/	.	4dd\	.	4ddn\	cum
4r	.	.	4r	.	8dd\L	.	8dd\	pro-
.	.	.	.	.	8b\J	.	8b\	-fun-
!	!	!	!LO:TX:b:i:t=volti citiſ&colon;	!	!	!	!	!
4r	.	.	4r	.	8g#/L	.	8g#/	-diſ-
.	.	.	.	.	8d/J	.	8d/	-si-
!	!	!	!LO:PB:g=original	!	!	!	!	!
=83	=83	=83	=83	=83	=83	=83	=83	=83
.	.	.	.	.	.	.	8qqd/	.
*	*	*	*tremolo	*	*tremolo	*	*	*
8AA/L	.	.	8e/L	.	8c#/L	.	2c#/	-mo
8AA/	.	.	8e/	.	8c#/	.	.	.
8AA/	.	.	8e/	.	8c#/	.	.	.
8AA/J	.	.	8e/J	.	8c#/J	.	.	.
*	*	*	*Xtremolo	*	*Xtremolo	*	*	*
!	!	!	!	!	!LO:LB:g=original	!	!	!
4AA/	6_ 4_	.	12ff#\L	.	12aa\L	.	12aa\L	Res-
.	.	.	12ee\	.	12gg#\	.	12gg#\	.
.	.	.	12dd\J	.	12ff#\J	.	12ff#\J	.
=84	=84	=84	=84	=84	=84	=84	=84	=84
4AA/	.	.	4dd\	.	4ff#T\	.	4ff#T\	-pec-
4AA/	5 3	.	4cc#\	.	4ee\	.	4ee,<\	-ta,
4r	.	.	4cc#\	.	4ee\	.	4ee\	ac
=85	=85	=85	=85	=85	=85	=85	=85	=85
4D\	.	.	4a/	.	4ff#\	.	12ff#\L	de-
.	.	.	.	.	.	.	12ee\	.
.	.	.	.	.	.	.	12dd\J	.
4r	.	.	4r	.	4r	.	12dd\L	.
.	.	.	.	.	.	.	12cc#\	.
.	.	.	.	.	.	.	12b\J	.
4D\	.	.	4a/	.	4ff#\	.	12b\L	.
.	.	.	.	.	.	.	12dd\	.
.	.	.	.	.	.	.	12ff#\J	.
!	!	!	!	!	!	!	!LO:LB:g=original	!
=86	=86	=86	=86	=86	=86	=86	=86	=86
4AA/	.	.	4cc#\	.	4ee\	.	12ee\L	.
.	.	.	.	.	.	.	12dd\	.
.	.	.	.	.	.	.	12cc#\J	.
4r	.	.	4r	.	4r	.	12cc#\L	.
.	.	.	.	.	.	.	12b\	.
.	.	.	.	.	.	.	12a\J	.
4AA/	.	.	4cc#\	.	4ee\	.	12a\L	.
.	.	.	.	.	.	.	12cc#\	.
.	.	.	.	.	.	.	12ee\J	.
=87	=87	=87	=87	=87	=87	=87	=87	=87
4E\	.	.	4b\	.	4dd\	.	12dd\L	-vo-
.	.	.	.	.	.	.	12cc#\	.
.	.	.	.	.	.	.	12b\J	.
4r	.	.	4r	.	4r	.	12b\L	.
.	.	.	.	.	.	.	12a\	.
.	.	.	.	.	.	.	12g#\J	.
4E\	7	.	4b\	.	4dd\	.	12g#\L	.
.	.	.	.	.	.	.	12b\	.
.	.	.	.	.	.	.	12dd\J	.
=88	=88	=88	=88	=88	=88	=88	=88	=88
4E\	6 4	.	4a/	.	4cc#\	.	8.cc#\	-tiſ-
.	.	.	.	.	.	.	16cc#\	-si-
!	!	!	!LO:TX:t=P:problem=mixed beam	!	!	!	!	!
4EE/	5 3	.	8g#/L	.	8b\L	.	4b\	-mo
.	.	.	8gg#|\	.	8bb|\	.	.	.
4r	.	.	(8dd\	.	(8gg#\	.	4r	.
.	.	.	8b\J)	.	8dd\J)	.	.	.
!LO:PB:g=original	!	!	!	!	!	!	!	!
=89	=89	=89	=89	=89	=89	=89	=89	=89
4E\	.	.	8.g#/L	.	8.bT\L	.	(8.bT\L	Cor-
.	.	.	16a/Jk	.	16cc#\Jk	.	16cc#\Jk)	.
8G#\L	.	.	2b\	.	2ddT\	.	2ddT\	-de
8F#\	.	.	.	.	.	.	.	.
8G#\	.	.	.	.	.	.	.	.
8E\J	.	.	.	.	.	.	.	.
!	!	!	!	!	!	!	!LO:LB:g=original	!
=90	=90	=90	=90	=90	=90	=90	=90	=90
4AA/	.	.	8.a/L	.	8.cc#t\L	.	(8.cc#t\L	Te
.	.	.	16b/Jk	.	16dd\Jk	.	16dd\Jk)	.
8C#/L	.	.	2cc#\	.	2ee\	.	2eeT\	.
8BB/	.	.	.	.	.	.	.	.
8C#/	.	.	.	.	.	.	.	.
8AA/J	.	.	.	.	.	.	.	.
!	!	!	!LO:LB:g=original	!	!	!	!	!
=91	=91	=91	=91	=91	=91	=91	=91	=91
*tremolo	*	*	*tremolo	*	*	*	*	*
8D\L	.	.	8f#/L	.	8ff#\L	.	(8ff#\L	ho-
8D\	.	.	8f#/	.	8dd\J	.	8dd\J)	.
!	!	!	!	!	!LO:LB:g=original	!	!	!
8D\	.	.	8f#/	.	4aa\	.	4aa\	.
8D\	.	.	8f#/	.	.	.	.	.
8D\	.	.	8f#/	.	16aa\LL	.	16aa\LL	.
.	.	.	.	.	16gg#\	.	16ff#\	.
8D\J	.	.	8f#/J	.	16ff#\	.	16ee\	.
.	.	.	.	.	16ee\JJ	.	16dd\JJ	.
=92	=92	=92	=92	=92	=92	=92	=92	=92
8C#/L	6 5	.	8e/L	.	8ee\L	.	(8ee\L	-no-
8C#/	.	.	8e/	.	8cc#\J	.	8cc#\J)	.
8C#/	.	.	8e/	.	4aa\	.	4aa\	.
8C#/	.	.	8e/	.	.	.	.	.
8C#/	.	.	8e/	.	16aa\LL	.	16aa\LL	.
.	.	.	.	.	16ee\	.	16ee\	.
8C#/J	.	.	8e/J	.	16dd\	.	16dd\	.
.	.	.	.	.	16cc#\JJ	.	16cc#\JJ	.
*Xtremolo	*	*	*Xtremolo	*	*	*	*	*
=93	=93	=93	=93	=93	=93	=93	=93	=93
4AA/	.	.	4d/	.	4cc#\	.	(16cc#\LL	-ra-
.	.	.	.	.	.	.	16a\	.
.	.	.	.	.	.	.	16b\	.
.	.	.	.	.	.	.	16cc#\JJ)	.
4r	.	.	4r	.	4r	.	(16dd\LL	.
.	.	.	.	.	.	.	16ee\	.
.	.	.	.	.	.	.	16ff#\	.
.	.	.	.	.	.	.	16gg#\JJ)	.
4r	.	.	4r	.	4r	.	(16aa\LL	.
.	.	.	.	.	.	.	16ee\	.
.	.	.	.	.	.	.	16cc#\	.
.	.	.	.	.	.	.	16a\JJ)	.
!	!	!	!	!	!	!	!LO:LB:g=original	!
=94	=94	=94	=94	=94	=94	=94	=94	=94
2.E;;\	.	.	2.r;	.	2.r;	.	4e;/	.
.	.	.	.	.	.	.	2bT\	.
=95	=95	=95	=95	=95	=95	=95	=95	=95
!	!	!LO:DY:t=Forte.	!	!LO:DY:a:t=Forte.	!	!LO:DY:a:t=Forte.	!	!
4A\	.	f	4cc#\	f	8a\L	f	4a\	-mus
.	.	.	.	.	8cc#\J	.	.	.
4AA/	.	.	4cc#\	.	4ee\	.	4r	.
4r	.	.	12ff#\L	.	12aa\L	.	4r	.
.	.	.	12ee\	.	12gg#\	.	.	.
.	.	.	12dd\J	.	12ff#\J	.	.	.
=96	=96	=96	=96	=96	=96	=96	=96	=96
4E\	.	.	4.cc#t\	.	4.eeT\	.	0.r	.
4G#\	6 5	.	.	.	.	.	.	.
.	.	.	8b\	.	8dd\	.	.	.
4A\	.	.	4a/	.	4cc#\	.	.	.
=97	=97	=97	=97	=97	=97	=97	=97	=97
4A\	.	.	4c#/	.	16A/LL	.	.	.
.	.	.	.	.	16B/	.	.	.
.	.	.	.	.	16c#/	.	.	.
.	.	.	.	.	16d/JJ	.	.	.
!	!	!	!	!	!LO:LB:g=original	!	!	!
4AA/	.	.	4c#/	.	4e/	.	.	.
!	!	!	!LO:TUP:b	!	!LO:TUP:b	!	!	!
4r	.	.	12f#/L	.	12a/L	.	.	.
.	.	.	12e/	.	12g#/	.	.	.
.	.	.	12d/J	.	12f#/J	.	.	.
!LO:LB:g=original	!	!	!	!	!	!	!	!
=98	=98	=98	=98	=98	=98	=98	=98	=98
4E\	.	.	4.c#/	.	4.eT/	.	.	.
4G#\	6 5	.	.	.	.	.	.	.
.	.	.	8B/	.	8d/	.	.	.
4A\	.	.	4A/	.	4c#/	.	.	.
!	!	!	!LO:LB:g=original	!	!	!	!	!
=99	=99	=99	=99	=99	=99	=99	=99	=99
4E\	7	.	8.g#/L	.	8.bT\L	.	.	.
.	.	.	16a/Jk	.	16cc#\Jk	.	.	.
4EE/	.	.	4b\	.	4dd\	.	.	.
4r	.	.	16dd\KL	.	16bb\KL	.	.	.
!	!	!	!	!	!LO:TX:t=..	!	!	!
.	.	.	8b\	.	8gg#'\	.	.	.
.	.	.	16g#\Jk	.	16dd\Jk	.	.	.
=100	=100	=100	=100	=100	=100	=100	=100	=100
4A\	.	.	8.a/L	.	8.cc#t\L	.	0.r	.
.	.	.	16b/Jk	.	16dd\Jk	.	.	.
4AA/	.	.	4cc#\	.	4ee\	.	.	.
4r	.	.	16ee\KL	.	16ccc#\KL	.	.	.
!	!	!	!	!	!LO:TX:t=..	!	!	!
.	.	.	8cc#\	.	8aa'\	.	.	.
.	.	.	16a\Jk	.	16ee\Jk	.	.	.
=101	=101	=101	=101	=101	=101	=101	=101	=101
4A\	.	.	8cc#\L	.	8aa\L	.	.	.
.	.	.	8ee|\	.	8ccc#|\	.	.	.
4G#\	6 5	.	(8ee\	.	(8ccc#\	.	.	.
.	.	.	8dd\)	.	8bb\)	.	.	.
4A\	.	.	(8dd\	.	(8bb\	.	.	.
.	.	.	8cc#\J)	.	8aa\J)	.	.	.
=102	=102	=102	=102	=102	=102	=102	=102	=102
.	.	.	8qqcc#/	.	8qqaa/	.	.	.
8E\L	.	.	4b\	.	4gg#\	.	.	.
16G#|\L	.	.	.	.	.	.	.	.
16A|\JJ	.	.	.	.	.	.	.	.
16B|\LL	.	.	4r	.	4r	.	.	.
16A|\	.	.	.	.	.	.	.	.
16G#|\	.	.	.	.	.	.	.	.
16F#|\JJ	.	.	.	.	.	.	.	.
4E\	.	.	4r	.	4r	.	.	.
!	!	!	!	!	!LO:LB:g=original	!	!	!
=103	=103	=103	=103	=103	=103	=103	=103	=103
4r	.	.	12b\L	.	12gg#\L	.	.	.
.	.	.	12cc#\	.	12aao\	.	.	.
.	.	.	12dd\J	.	12bb\J	.	.	.
.	.	.	8qqcc#/	.	.	.	.	.
8E\L	7	.	2b\	.	2ddT\	.	.	.
8F#\	.	.	.	.	.	.	.	.
8G#\	.	.	.	.	.	.	.	.
8E\J	.	.	.	.	.	.	.	.
=104	=104	=104	=104	=104	=104	=104	=104	=104
4A\	.	.	4cc#\	.	(16cc#\LL	.	0.r	.
.	.	.	.	.	16a\)	.	.	.
.	.	.	.	.	16b'\	.	.	.
.	.	.	.	.	16cc#'\JJ	.	.	.
4r	.	.	4r	.	16dd\LL	.	.	.
.	.	.	.	.	16ee\	.	.	.
.	.	.	.	.	16ff#\	.	.	.
.	.	.	.	.	16gg#\JJ	.	.	.
4AA/	.	.	4cc#\	.	16aa\LL	.	.	.
.	.	.	.	.	16gg#\	.	.	.
.	.	.	.	.	16aa\	.	.	.
.	.	.	.	.	16ee\JJ	.	.	.
!LO:LB:g=original	!	!	!LO:LB:g=original	!	!	!	!	!
=105	=105	=105	=105	=105	=105	=105	=105	=105
4D\	.	.	8dd\L	.	8ff#\LL	.	.	.
*	*	*	*	*	*Xbrackettup	*	*	*
.	.	.	24ff#\L	.	24ddd\	.	.	.
.	.	.	24ee\	.	24ccc#\	.	.	.
.	.	.	24dd\JJ	.	24bb\JJ	.	.	.
!LO:TX:t=P:problem=mixed beam	!	!	!	!	!	!	!	!
8E\L	4	.	4cc#\	.	4aa\	.	.	.
8D\	.	.	.	.	.	.	.	.
8E\	3	.	4b\	.	4gg#\	.	.	.
8EE/J	.	.	.	.	.	.	.	.
=106	=106	=106	=106	=106	=106	=106	=106	=106
.	.	.	.	.	8qqgg#/	.	.	.
*	*	*	*tremolo	*	*	*	*	*
!LO:TX:t=P:problem=mixed beam	!	!	!	!	!	!	!	!
8AA/L	.	.	8cc#\L	.	4aa\	.	.	.
8A\	.	.	8cc#\	.	.	.	.	.
8A\	.	.	8cc#\	.	8r	.	.	.
8A\	.	.	8cc#\	.	8eee\	.	.	.
8A\	.	.	8cc#\	.	(16ddd\LL	.	.	.
.	.	.	.	.	16ccc#\)	.	.	.
8A\J	.	.	8cc#\J	.	(16ccc#\	.	.	.
.	.	.	.	.	16bb\JJ)	.	.	.
=107	=107	=107	=107	=107	=107	=107	=107	=107
.	.	.	.	.	8qqaa/	.	.	.
*tremolo	*	*	*	*	*	*	*	*
8E\L	7	.	8b\L	.	4gg#\	.	.	.
8E\	.	.	8b\	.	.	.	.	.
!	!	!	!	!	!LO:LB:g=original	!	!	!
8E\	.	.	8b\	.	8r	.	.	.
8E\	.	.	8b\	.	8ddd\	.	.	.
8E\	.	.	8b\	.	(16ccc#\LL	.	.	.
.	.	.	.	.	16bb\)	.	.	.
8E\J	.	.	8b\J	.	(16aa\	.	.	.
.	.	.	.	.	16gg#\JJ)	.	.	.
=108	=108	=108	=108	=108	=108	=108	=108	=108
.	.	.	.	.	8qqgg#/	.	.	.
8AA/L	.	.	8c#/L	.	4aa\	.	0.r	.
8AA/	.	.	8c#/	.	.	.	.	.
8AA/	.	.	8c#/	.	8r	.	.	.
8AA/	.	.	8c#/	.	8ee\	.	.	.
8AA/	.	.	8c#/	.	(16dd\LL	.	.	.
.	.	.	.	.	16cc#\)	.	.	.
8AA/J	.	.	8c#/J	.	(16b\	.	.	.
.	.	.	.	.	16a\JJ)	.	.	.
=109	=109	=109	=109	=109	=109	=109	=109	=109
.	.	.	.	.	8qqa/	.	.	.
8E\L	.	.	8B/L	.	4g#/	.	.	.
8E\	.	.	8B/	.	.	.	.	.
8E\	.	.	8B/	.	8r	.	.	.
8E\	.	.	8B/	.	8dd\	.	.	.
8E\	.	.	8B/	.	(16cc#/LL	.	.	.
.	.	.	.	.	16b/)	.	.	.
8E\J	.	.	8B/J	.	(16a/	.	.	.
.	.	.	.	.	16g#/JJ)	.	.	.
*Xtremolo	*	*	*Xtremolo	*	*	*	*	*
=110	=110	=110	=110	=110	=110	=110	=110	=110
!	!	!	!	!	!LO:TUP:b	!	!	!
4AA/	.	.	4c#/	.	12a/L	.	.	.
.	.	.	.	.	12cc#/	.	.	.
.	.	.	.	.	12ee/J	.	.	.
4r	.	.	12ee\L	.	12aa\L	.	.	.
.	.	.	12aa\	.	12ccc#\	.	.	.
.	.	.	12ccc#\J	.	12eee\J	.	.	.
4AA/	.	.	8bb\L	.	8ddd\L	.	.	.
.	.	.	8aa\J	.	8ccc#\J	.	.	.
=111	=111	=111	=111	=111	=111	=111	=111	=111
4E\	.	.	4gg#\	.	12bb\L	.	.	.
.	.	.	.	.	12gg#\	.	.	.
.	.	.	.	.	12ee\J	.	.	.
8G#\L	6 5	.	8b/L	.	2dddT\	.	.	.
8F#\	.	.	8a/	.	.	.	.	.
8G#\	.	.	8b/	.	.	.	.	.
8E\J	.	.	8g#/J	.	.	.	.	.
!	!	!	!	!	!LO:LB:g=original	!	!	!
=112	=112	=112	=112	=112	=112	=112	=112	=112
4A\	.	.	4e/	.	(16ccc#\LL	.	1.r	.
.	.	.	.	.	16aa\)	.	.	.
.	.	.	.	.	16eee'\	.	.	.
.	.	.	.	.	16aa'\JJ	.	.	.
!LO:TX:t=P:problem=mixed beam	!	!	!	!	!	!	!	!
8E\L	4	.	4a/	.	2bbT\	.	.	.
8D\	.	.	.	.	.	.	.	.
8E\	3	.	4g#/	.	.	.	.	.
8EE/J	.	.	.	.	.	.	.	.
!LO:LB:g=original	!	!	!LO:LB:g=original	!	!	!	!	!
=113	=113	=113	=113	=113	=113	=113	=113	=113
4AA/	.	.	8a|\L	.	8aa\L	.	.	.
.	.	.	(16cc#\L	.	16.ee\L	.	.	.
.	.	.	16dd\JJ)	.	.	.	.	.
.	.	.	.	.	32ff#\JJk	.	.	.
4r	.	.	8cc#\L	.	8ee\L	.	.	.
.	.	.	8b\J	.	8dd\J	.	.	.
.	.	.	8qqb/	.	8qqdd/	.	.	.
!LO:TX:a:i:t=Finis.	!	!	!LO:TX:a:i:t=Finis	!	!LO:TX:a:i:t=Finis.	!	!LO:TX:b:i:t=Finis.	!
4AA/	.	.	4a/	.	4cc#\	.	.	.
=114||	=114||	=114||	=114||	=114||	=114||	=114||	=114||	=114||
!!!key: a
*>B	*	*	*>B	*	*>B	*	*>B	*
*k[]	*	*	*k[]	*	*k[]	*	*k[]	*
!	!	!LO:DY:a:t=Piano.	!	!LO:DY:a:t=piano.	!	!LO:DY:a:t=Piano.	!	!
4A\	.	p	4cc\	p	8.a/L	p	(8.a\L	Nos
.	.	.	.	.	16cc/Jk	.	16cc\Jk)	.
4AA/	.	.	4cc\	.	4ee\	.	4ee\	Sanc-
4r	.	.	4r	.	12aa\L	.	12aa\L	.
.	.	.	.	.	12gg\	.	12gg\	.
.	.	.	.	.	12ff\J	.	12ff\J	.
=115	=115	=115	=115	=115	=115	=115	=115	=115
4E\	7_ #	.	4.g#X/	.	4.eet\	.	4.eet\	-cti-
4G#X\	.	.	.	.	.	.	.	.
.	.	.	8b\	.	8dd\	.	8dd\	-ſsi-
4A\	.	.	4a/	.	4cc\	.	4cc\	-mis
!	!	!	!	!	!	!	!LO:LB:g=original	!
=116	=116	=116	=116	=116	=116	=116	=116	=116
4A\	x	.	4cc\	.	(16a/LL	.	(16a\LL	gra-
.	.	.	.	.	16b/)	.	16b\	.
.	.	.	.	.	(16cc/	.	16cc\	.
.	.	.	.	.	16dd/JJ)	.	16dd\JJ)	.
4AA/	.	.	4cc\	.	4ee\	.	4ee\	.
4r	.	.	4r	.	12aa\L	.	12aa\L	.
.	.	.	.	.	12gg\	.	12gg\	.
.	.	.	.	.	12ff\J	.	12ff\J	.
!	!	!	!	!	!LO:LB:g=original	!	!	!
=117	=117	=117	=117	=117	=117	=117	=117	=117
4E\	#	.	4.g#X/	.	4.eet\	.	4.eet\	.
4G#X\	6 5	.	.	.	.	.	.	.
.	.	.	8b\	.	8dd\	.	8dd\	.
4A\	.	.	4a/	.	4cc\	.	4cc\	-tijs
!LO:LB:g=original	!	!	!LO:LB:g=original	!	!	!	!	!
=118	=118	=118	=118	=118	=118	=118	=118	=118
.	.	.	.	.	.	.	16qqgg/	.
4D\	.	.	8dd\L	.	8ff|\L	.	8ff\	co-
.	.	.	(16cc\L	.	(16ee\L	.	(16ee\LL	-men-
.	.	.	16b\JJ)	.	16dd\JJ)	.	16dd\JJ)	.
!LO:TX:t=P:problem=mixed beam	!	!	!	!	!	!	!	!
8E\L	6 4	.	4a/	.	4cc\	.	(4cc\	-da-
8D\	.	.	.	.	.	.	.	.
8E\	5 #	.	4g#X/	.	4b\	.	4bt\)	.
8EE/J	.	.	.	.	.	.	.	.
=119	=119	=119	=119	=119	=119	=119	=119	=119
4AA/	.	.	8a/L	.	8a/L	.	4a\	-mus
!	!	!	!	!	!	!LO:DY:a:t=for.	!	!
.	.	.	8e|/	.	8g|/	f	.	.
!	!	!	!	!LO:DY:a:t=for.	!	!	!	!
4r	.	.	(8fn/	f	(8a/	.	4r	.
.	.	.	8e/)	.	8g/)	.	.	.
4r	.	.	(8f/	.	(8a/	.	4r	.
.	.	.	8d/J)	.	8b/J)	.	.	.
=120	=120	=120	=120	=120	=120	=120	=120	=120
!	!	!	!	!LO:DY:t=pia	!	!LO:DY:a:t=piano	!	!
4c\	.	.	4e/	p	8cc\L	p	(8.cc\L	Nos
.	.	.	.	.	8ee\J	.	.	.
.	.	.	.	.	.	.	16ee\Jk)	.
4C/	.	.	4e/	.	4gg\	.	4gg\	San-
!	!	!	!LO:TUP:b	!	!	!	!	!
4r	.	.	12a/L	.	12ccc\L	.	12ccc\L	.
.	.	.	12g/	.	12bb\	.	12bb\	.
.	.	.	12f/J	.	12aa\J	.	12aa\J	.
!	!	!	!	!	!	!	!LO:LB:g=original	!
=121	=121	=121	=121	=121	=121	=121	=121	=121
4G\	.	.	4.e/	.	4.ggT\	.	4.ggT\	-cti-
4B\	6 5	.	.	.	.	.	.	.
.	.	.	8d/	.	8ff\	.	8ff\	-ſsi-
4c\	.	.	4c/	.	4ee\	.	4ee\	-mis
=122	=122	=122	=122	=122	=122	=122	=122	=122
4c\	.	.	4ee\	.	16cc\LL	.	(16cc\LL	gra-
.	.	.	.	.	16dd\	.	16dd\	.
.	.	.	.	.	16ee\	.	16ee\	.
.	.	.	.	.	16ff\JJ	.	16ff\JJ)	.
4C/	.	.	4ee\	.	4gg\	.	4gg\	.
4r	.	.	12aa\L	.	12ccc\L	.	12ccc\L	.
.	.	.	12gg\	.	12bb\	.	12bb\	.
.	.	.	12ff\J	.	12aa\J	.	12aa\J	.
!	!	!	!LO:LB:g=original	!	!	!	!	!
=123	=123	=123	=123	=123	=123	=123	=123	=123
4G\	.	.	4.eet\	.	4.ggT\	.	4.ggT\	.
4B\	6 5	.	.	.	.	.	.	.
.	.	.	8dd\	.	8ff\	.	8ff\	.
4c\	.	.	4cc\	.	4ee\	.	4ee\	-tiis
!	!	!	!	!	!LO:LB:g=original	!	!	!
=124	=124	=124	=124	=124	=124	=124	=124	=124
.	.	.	.	.	.	.	16qqbb/	.
4F\	.	.	8ff|\L	.	8aa\L	.	8aa\	co-
.	.	.	(16ee\L	.	(16gg\L	.	(16gg\LL	-men-
.	.	.	16dd\JJ)	.	16ff\JJ)	.	16ff\JJ)	.
!LO:TX:t=P:problem=mixed beam	!	!	!	!	!	!	!	!
8G\L	6 4	.	4cc\	.	4ee\	.	(4ee\	-da-
8F\	.	.	.	.	.	.	.	.
8G\	5 3	.	4b\	.	4dd\	.	4dd\)	.
8GG/J	.	.	.	.	.	.	.	.
!LO:LB:g=original	!	!	!	!	!	!	!	!
=125	=125	=125	=125	=125	=125	=125	=125	=125
!	!	!	!	!	!	!LO:DY:a:t=for	!	!
4C/	.	.	8cc/L	.	8cc\L	f	4cc\	-mus,
.	.	.	8g|/	.	8ee|\	.	.	.
!	!	!	!	!LO:DY:a:t=f&colon;	!	!	!	!
4r	.	.	(8g/	f	(8ee\	.	4r	.
.	.	.	8f/)	.	8dd\)	.	.	.
4r	.	.	(8f/	.	(8dd\	.	4r	.
.	.	.	8e/J)	.	8cc\J)	.	.	.
!	!	!	!	!	!	!	!LO:LB:g=original	!
=126	=126	=126	=126	=126	=126	=126	=126	=126
!	!	!	!	!LO:DY:a:t=p&colon;	!	!LO:DY:a:t=pia.	!	!
4A\	5 3	.	4c/	p	(16ee\LL	p	(16ee\LL	Ma-
.	.	.	.	.	16dd\)	.	16dd\	.
.	.	.	.	.	(16cc\	.	16cc\	.
.	.	.	.	.	16b\JJ)	.	16b\JJ)	.
4c\	.	.	4e/	.	4a/	.	4a\	-nus
4A\	.	.	4c/	.	8r	.	8r	.
.	.	.	.	.	8ee\	.	8ee\	Pe-
=127	=127	=127	=127	=127	=127	=127	=127	=127
4D\	.	.	(16a/LL	.	(16ff\LL	.	(16ff\LL	-des-
.	.	.	16g/)	.	16ee\)	.	16ee\	.
.	.	.	(16f/	.	(16dd\	.	16dd\	.
.	.	.	16e/JJ)	.	16cc#X\JJ)	.	16cc#X\JJ)	.
.	.	.	.	.	8qqcc#/	.	.	.
4F\	.	.	4f/	.	4dd\	.	4dd\	-que
4D\	.	.	4r	.	4r	.	4r	.
=128	=128	=128	=128	=128	=128	=128	=128	=128
4G\	.	.	4B/	.	(16dd\LL	.	(16dd\LL	Ma-
.	.	.	.	.	16ccn\)	.	16cc\	.
.	.	.	.	.	(16b\	.	16b\	.
.	.	.	.	.	16a\JJ)	.	16a\JJ)	.
4B\	.	.	4d/	.	4g/	.	4g/	-nus
4G\	.	.	4B/	.	8r	.	8r	.
.	.	.	.	.	8dd\	.	8dd\	Pe-
!	!	!	!LO:LB:g=original	!	!	!	!	!
=129	=129	=129	=129	=129	=129	=129	=129	=129
4C/	.	.	(16g/LL	.	(16ee\LL	.	(16ee\LL	-des-
.	.	.	16f/)	.	16dd\)	.	16dd\	.
.	.	.	(16e/	.	(16cc\	.	16cc\	.
.	.	.	16d/JJ)	.	16b\JJ)	.	16b\JJ)	.
!	!	!	!	!	!LO:LB:g=original	!	!	!
.	.	.	.	.	8qqb/	.	.	.
4E\	.	.	4e/	.	4cc\	.	4cc\	-que
4C/	.	.	4r	.	4r	.	4r	.
!	!	!	!	!	!	!	!LO:LB:g=original	!
=130	=130	=130	=130	=130	=130	=130	=130	=130
4AA/	.	.	(4c/	.	(4ee\	.	(4ee\	os-
4r	.	.	4d/)	.	4ff\)	.	4ffn\)	.
4r	.	.	4c|/	.	4ee|\	.	4ee|\	-cu-
=131	=131	=131	=131	=131	=131	=131	=131	=131
!	!	!	!LO:TUP:b	!	!	!	!	!
4BB/	7 #	.	12f#X/L	.	12dd#X\L	.	12dd#X\L	-lan-
.	.	.	12g#X/	.	12ee\	.	12ee\	.
.	.	.	12a/J	.	12ff#X\J	.	12ff#X\J	.
4E\	#	.	4g#/	.	4ee\	.	4ee\	-do
4EE/	.	.	4r	.	4r	.	4r	.
=132	=132	=132	=132	=132	=132	=132	=132	=132
*	*	*	*tremolo	*	*	*	*	*
4E\	7_ #	.	8e/L	.	(4ddn\	.	(4dd\	Vo-
.	.	.	8e/	.	.	.	.	.
4G#X\	.	.	8e/	.	4b\)	.	4b\)	.
.	.	.	8e/	.	.	.	.	.
4A\	x	.	8e/	.	4cc\	.	4cc|\	-ta
.	.	.	8e/J	.	.	.	.	.
!LO:LB:g=original	!	!	!	!	!	!	!	!
=133	=133	=133	=133	=133	=133	=133	=133	=133
4E\	#	.	8e/L	.	4.g#Xt/	.	4.g#Xt\	noſ-
.	.	.	8e/	.	.	.	.	.
4D\	4 2	.	8e/	.	.	.	.	.
.	.	.	8e/J	.	(16a/LL	.	(16a\LL	.
.	.	.	.	.	16b/JJ)	.	16b\JJ)	.
*	*	*	*Xtremolo	*	*	*	*	*
4Cn/	6 3	.	4e/	.	4a/	.	4a\	-tra
=134	=134	=134	=134	=134	=134	=134	=134	=134
8AA/L	.	.	8cc|\L	.	(16aa\LL	.	(16aa\LL	prae-
.	.	.	.	.	16ee\)	.	16ee\JJ)	.
8D/J	.	.	(16cc\L	.	(16ff\	.	(16ff\LL	-sen-
.	.	.	16b\JJ)	.	16dd\JJ)	.	16dd\JJ)	.
4E\	4	.	4a/	.	4cc\	.	(4cc\	-ta-
4EE/	#	.	4g#X/	.	4bt\	.	4bt\)	.
!	!	!	!LO:LB:g=original	!	!LO:LB:g=original	!	!LO:LB:g=original	!
=135	=135	=135	=135	=135	=135	=135	=135	=135
4AA/	.	.	4a/	.	4a/	.	4a\	-mus
8r	.	.	8r	.	8r	.	4r	.
!	!	!	!	!LO:DY:a:t=f&colon;	!	!LO:DY:a:t=for.	!	!
8Fn|\L	.	.	8f/L	f	8f|/L	f	.	.
8E|\	.	.	8e/	.	8e|/	.	4r	.
8D#X|\J	.	.	8d#X/J	.	8d#X|/J	.	.	.
=136	=136	=136	=136	=136	=136	=136	=136	=136
!LO:N:vis=2	!	!	!	!	!	!	!	!
2.E;;\	.	.	4e/	.	4e/	.	8a\	Lau-
.	.	.	.	.	.	.	16a\	des
.	.	.	.	.	.	.	16a\	can-
.	.	.	4r	.	4r	.	4a;\	-tan-
.	.	.	4r	.	4r	.	4bt\	.
=137	=137	=137	=137	=137	=137	=137	=137	=137
4AA/	.	.	2.r;	.	2.r;;	.	4a\	-do
4r	.	.	.	.	.	.	4r	.
!LO:TX:b:i:t=da Capo	!	!	!LO:TX:b:i:t=da Capo	!	!LO:TX:b:i:t=da Capo.	!	!LO:TX:b:i:t=da Capo	!
4r	.	.	.	.	.	.	4r	.
==	==	==	==	==	==	==	==	==
*-	*-	*-	*-	*-	*-	*-	*-	*-
!!!system-decoration: <s1>[(g1)]<s4>
!!!RDF**kern: > = above
!!!RDF**kern: < = below
!!!RDF**kern: | = vertical stroke
!!!ENC: Andrzej Gręziak
!!!END: 2020-06-29
!!!ENC: Andrzej Kubiczek
!!!END: 2022-01-30
